!!!!SEGMENT: pl-wtm--r-1478_stefani-jozef--babo-zwawo-wloz-czop-w-prawo.krn
!!!cenid: 18xx:2223
!!!COM: Stefani, Józef
!!!COM-rismID: pe30024097
!!!CDT: 1800/04/16-1876/03/19
!!!CNT: Polish
!!!OTL: Babo, żwawo, włóż czop w prawo
!!!PDT:
!!!AGN:
!!!SMS-siglum: PL-Wtm
!!!SMS-shelfmark: R 1478
!!!SMS-shelfwork: W
!!!SMS-variant:
!!!SMS-altvar:
!!!NIFC-rismSourceID: 1001122081
!!!NIFC-islandoraID: pl-wtm:25982
!!!URL-pdf-islandora: https://repozytorium.nifc.pl/islandora/object/pl-wtm%3A25982/datastream/PDF/view
!!!URL-scan: https://polish.musicsources.pl/pl/lokalizacje/galeria/rekopisy/6290 @EN{Scan on Polish Music Sources Website} @PL{Skany w portalu Dziedzictwo Muzyki Polskiej w otwartym dostępie}
!!!ONB-nifc:
!!!OMD: Allegro.
!!!AIN: 2 empty
!!!key:
**kern	**kern	**dynam	**kern	**text	**text	**text	**dynam
*part2	*part2	*part2	*part1	*part1	*part1	*part1	*part1
*staff3	*staff2	*	*staff1	*staff1	*staff1	*staff1	*
*Iempty	*Iforte	*	*Iempty	*	*	*	*
*	*I"Fortepian	*	*I"Śpiew	*	*	*	*
*>[A,B,B,B]	*>[A,B,B,B]	*>[A,B,B,B]	*>[A,B,B,B]	*>[A,B,B,B]	*>[A,B,B,B]	*>[A,B,B,B]	*>[A,B,B,B]
*>A	*>A	*>A	*>A	*>A	*>A	*>A	*>A
*clefF4	*clefG2	*	*clefG2	*	*	*	*
*k[]	*k[]	*	*k[]	*	*	*	*
*C:	*C:	*	*C:	*	*	*	*
*M2/4	*M2/4	*	*M2/4	*	*	*	*
*all\right	*all\right	*	*all\right	*	*	*	*
=1	=1	=1	=1	=1	=1	=1	=1
!	!	!LO:DY:rj	!	!	!	!	!
(16C/LL	(16c/LL	f	2r	.	.	.	.
16BB/	16B/	.	.	.	.	.	.
16C/	16c/	.	.	.	.	.	.
16BB/JJ	16B/JJ	.	.	.	.	.	.
16C/LL	16c/LL	.	.	.	.	.	.
16BB/	16B/	.	.	.	.	.	.
16C/	16c/	.	.	.	.	.	.
16BB/JJ)	16B/JJ)	.	.	.	.	.	.
=2	=2	=2	=2	=2	=2	=2	=2
(16C/LL	(16c/LL	.	2r	.	.	.	.
16BB/	16B/	.	.	.	.	.	.
16C/	16c/	.	.	.	.	.	.
16BB/JJ	16B/JJ	.	.	.	.	.	.
16C/LL	16c/LL	.	.	.	.	.	.
16BB/J)	16B/J)	.	.	.	.	.	.
!	!LO:TX:a:t=[segno]	!	!LO:TX:a:t=[segno]	!	!	!	!
!	!LO:TX:t=P:problem=znak [segno] na kresce taktowej	!	!LO:TX:t=P:problem=znak [segno] na kresce taktowej	!	!	!	!
8C'/J	8c'/J	.	.	.	.	.	.
=3||	=3||	=3||	=3||	=3||	=3||	=3||	=3||
*>B	*>B	*>B	*>B	*>B	*>B	*>B	*>B
!	!	!	!	!	!	!	!LO:DY:rj:a
8AA-X 8AAA-X/	8r	.	8dd\	1.)_Ba-	2.)_Spoj-	3.)_Ba-	f
8r	8f 8d 8B/	.	8dd\	-bo	-rzyj	-bo	.
8GG 8GGG/	8r	.	8d/	żwa-	ba-	wście-	.
8r	8f 8d 8B/	.	8d/	-wo	-bo	-kła	.
=4	=4	=4	=4	=4	=4	=4	=4
8AA-X 8AAA-X/	8r	.	8dd\	włóż	Czop	Tyś	.
8r	8f 8d 8B/	.	8dd\	czop	za	mi	.
8GG 8GGG/	8r	.	8d/	w_pra-	sła-	z_pie-	.
8r	8f 8d 8B/	.	8d/	-wo	-bo	-kła	.
!!LO:LB:g=original
=5	=5	=5	=5	=5	=5	=5	=5
!	!	!LO:DY:rj	!	!	!	!	!
8BB 8BBB/	8r	p	8d/	becz-	Z_pi-	Na	.
8r	8f 8d 8G/	.	8f/	-ka	-wa	Ka-	.
8BB 8BBB/	8r	.	8e/	nie	tyl-	-rę	.
8r	8f 8d 8G/	.	8d/	za-	-ko	ze-	.
=6	=6	=6	=6	=6	=6	=6	=6
8C 8CC/	8r	.	4g/	-tka-	pia-	-sła-	.
8r	8e 8c 8G/	.	.	.	.	.	.
8C 8CC/	8r	.	4e/	-na,	-na!	-na!	.
8r	8e 8c 8G/	.	.	.	.	.	.
=7	=7	=7	=7	=7	=7	=7	=7
*rep	*	*	*	*	*	*	*
8C 8CC/	8r	.	8a/	czy	.	.	.
8r	8f 8c 8A/	.	8cc\	to	.	.	.
8C 8CC/	8r	.	8b\	wie-	.	.	.
8r	8f 8c 8A/	.	8a/	-czór,	.	.	.
*Xrep	*	*	*	*	*	*	*
=8	=8	=8	=8	=8	=8	=8	=8
*rep	*	*	*	*	*	*	*
8C 8CC/	8r	.	8g/	czy	.	.	.
8r	8e 8c 8G/	.	8cc\	to	.	.	.
8C 8CC/	8r	.	8e/	z_ra-	.	.	.
8r	8e 8c 8G/	.	8a/	-na	.	.	.
*Xrep	*	*	*	*	*	*	*
!!LO:LB:g=original
=9	=9	=9	=9	=9	=9	=9	=9
8BB/	8r	.	8g/	Ba-	.	.	.
8r	8f 8d 8G/	.	8f/	-ba	.	.	.
8GG/	8r	.	8e/	cią-	.	.	.
8r	8f 8B 8G/	.	8d/	-gle	.	.	.
=10	=10	=10	=10	=10	=10	=10	=10
8C 8CC/	8r	.	8e/	iest	.	.	.
8rFF	8d#X 8c 8A 8F#X<^>/	.	8d#X/	pi-	.	.	.
8C 8CC/	8r	.	8e/	-ia-	.	.	.
8r	8e 8c 8G/	.	8c/	-na,	.	.	.
=11	=11	=11	=11	=11	=11	=11	=11
!	!	!LO:DY:rj	!	!	!	!	!
8C\L	8aaL 8a\	f	2r	.	.	.	.
8cJ 8A 8F\	8ccc 8cc\	.	.	.	.	.	.
*rep	*	*	*	*	*	*	*
8C\L	8bb 8b\	.	.	.	.	.	.
8cJ 8A 8F\	8aaJ 8a\	.	.	.	.	.	.
*Xrep	*	*	*	*	*	*	*
=12	=12	=12	=12	=12	=12	=12	=12
8C\L	8ggL 8g\	.	2r	.	.	.	.
8cJ 8G 8E\	8ccc 8cc\	.	.	.	.	.	.
*rep	*	*	*	*	*	*	*
8C\L	8eee 8ee\	.	.	.	.	.	.
8cJ 8G 8E\	8cccJ 8cc\	.	.	.	.	.	.
*Xrep	*	*	*	*	*	*	*
!!LO:LB:g=original
=13	=13	=13	=13	=13	=13	=13	=13
!	!	!LO:DY:rj	!	!	!	!	!
8BB/	8r	p	8g/	Ba-	.	.	.
8r	8f 8d 8G/	.	8f/	-ba	.	.	.
8GG/	8r	.	8e/	cią-	.	.	.
8r	8f 8B 8G/	.	8d/	-gle	.	.	.
=14	=14	=14	=14	=14	=14	=14	=14
8C 8CC/	8r	.	8e/	iest	.	.	.
8rFF	8d#X 8c 8A 8F#X</	.	8d#X/	pi-	.	.	.
8C 8CC/	8r	.	8e/	-ia-	.	.	.
8r	8e 8c 8G/	.	8c/	-na	.	.	.
=15	=15	=15	=15	=15	=15	=15	=15
8BB/	8r	.	8d/	Co	.	.	.
8r	8f 8d 8G/	.	8f/	z_nią	.	.	.
8GG/	8r	.	8a/	ro-	.	.	.
8r	8f 8d 8G/	.	8g/	-bić	.	.	.
=16	=16	=16	=16	=16	=16	=16	=16
(32qqGG/LLL	.	.	.	.	.	.	.
32qqAA/	.	.	.	.	.	.	.
32qqBB/JJJ	.	.	.	.	.	.	.
8C/)	8r	.	8e/	mil-	.	.	.
8r	8e 8c 8G/	.	8g/	-czą	.	.	.
8GG/	8r	.	8cc\	lu-	.	.	.
8r	8e 8c 8G/	.	8e/	-dzie	.	.	.
!!LO:PB:g=original
=17	=17	=17	=17	=17	=17	=17	=17
8BB/	8r	.	8d/	tyl-	.	.	.
8r	8f 8d 8G/	.	8f/	-ko	.	.	.
8GG/	8r	.	8a/	psi-	.	.	.
8r	8f 8d 8G/	.	8g/	-sko	.	.	.
=18	=18	=18	=18	=18	=18	=18	=18
(32qqGG/LLL	.	.	.	.	.	.	.
32qqAA/	.	.	.	.	.	.	.
32qqBB/JJJ	.	.	.	.	.	.	.
8C/)	8r	.	8e/	szcze-	.	.	.
8r	8e 8c 8G/	.	8cc\	-ka	.	.	.
8GG/	8r	.	8a/	w_bu-	.	.	.
8r	8e 8c 8G/	.	8g/	-dzie,	.	.	.
=19	=19	=19	=19	=19	=19	=19	=19
8C 8CC/	8r	.	8cc\	hau	.	.	.
8r	8cc 8e 8c/	.	8cc\	hau	.	.	.
8C 8CC/	8r	.	4e/	hau	.	.	.
8r	8e 8c/	.	.	.	.	.	.
=20	=20	=20	=20	=20	=20	=20	=20
*	*	*	*	*ij	*	*	*
8A 8AA\	8r	.	8cc\	hau	.	.	.
8r	8cc 8e 8c/	.	8cc\	hau	.	.	.
8A 8AA\	8r	.	4e/	hau	.	.	.
*	*	*	*	*Xij	*	*	*
8r	8e 8c/	.	.	.	.	.	.
!!LO:LB:g=original
=21	=21	=21	=21	=21	=21	=21	=21
8F 8FF/	8r	.	8a/	By	.	.	.
8r	8a 8f 8c/	.	8f/	ią	.	.	.
8G 8GG/	8r	.	8e/	dia-	.	.	.
8r	8g 8e 8c/	.	8g/	-beł	.	.	.
=22	=22	=22	=22	=22	=22	=22	=22
!LO:TX:t=P:problem=mixed beam	!	!	!	!	!	!	!
8G\L	8r	.	8d/	po-	.	.	.
8GG/J	8b 8g 8f 8d/	.	8g/	-rwać	.	.	.
4C/	4cc 4g 4e/	.	4c/	chciał.	.	.	.
=23	=23	=23	=23	=23	=23	=23	=23
!	!	!LO:DY:rj	!	!	!	!	!
8GG\L	(16b\LL	f	2r	.	.	.	.
.	16dd\	.	.	.	.	.	.
8GJ 8F 8D\	16ee\	.	.	.	.	.	.
.	16ff\JJ	.	.	.	.	.	.
*rep	*	*	*	*	*	*	*
8GG\L	8aa\L)	.	.	.	.	.	.
8GJ 8F 8D\	8gg'\J	.	.	.	.	.	.
*Xrep	*	*	*	*	*	*	*
=24	=24	=24	=24	=24	=24	=24	=24
8C\L	8ee'\L	.	2r	.	.	.	.
!	!LO:TUP:a:problem=klamra łukowa	!	!	!	!	!	!
8GJ 8E\	24ccc\L	.	.	.	.	.	.
.	24ddd\	.	.	.	.	.	.
.	24ccc\JJ	.	.	.	.	.	.
*rep	*	*	*	*	*	*	*
8C\L	8gg\L	.	.	.	.	.	.
8GJ 8E\	8ee'\J	.	.	.	.	.	.
*Xrep	*	*	*	*	*	*	*
!!LO:LB:g=original
=25	=25	=25	=25	=25	=25	=25	=25
8GG\L	(16b\LL	.	2r	.	.	.	.
.	16dd\	.	.	.	.	.	.
8GJ 8F 8D\	16ee\	.	.	.	.	.	.
.	16ff\JJ	.	.	.	.	.	.
*rep	*	*	*	*	*	*	*
8GG\L	8aa\L)	.	.	.	.	.	.
8GJ 8F 8D\	8gg'\J	.	.	.	.	.	.
*Xrep	*	*	*	*	*	*	*
=26	=26	=26	=26	=26	=26	=26	=26
8GL 8E 8C\	8ee\	.	2r	.	.	.	.
8G 8D 8GG\	8bbL 8gg 8ff 8dd\	.	.	.	.	.	.
8GJ 8E 8C\	8cccJ 8gg 8ee\	.	.	.	.	.	.
!	!LO:TX:t=[segno]	!	!LO:TX:t=[segno]	!	!	!	!
!	!LO:TX:t=P:problem=znak [segno] na kresce taktowej	!	!LO:TX:t=P:problem=znak [segno] na kresce taktowej	!	!	!	!
8r	8r	.	.	.	.	.	.
==	==	==	==	==	==	==	==
*-	*-	*-	*-	*-	*-	*-	*-
!!!system-decoration: <s1>{(s2,s3)}
!!!RDF**kern: > = above
!!!RDF**kern: < = below
!!!ENC: Andrzej Kubiczek
!!!END: 2021-06-05
!!!ENC: Katarzyna Serwa
!!!END: 2021-05-19
